masterproject/static/images/icons/hand.svg

<?xml version="1.0" encoding="utf-8"?><svg xmlns="http://www.w3.org/2000/svg" xmlns:xlink="http://www.w3.org/1999/xlink" version="1.1" class="page" pageAlignment="none" x="0px" y="0px" width="21.7px" height="26.1px" viewBox="0 0 21.7 26.1" enable-background="new 0 0 21.7 26.1" xml:space="preserve"><defs/><style type="text/css"/><style type="text/css"/><g type="LAYER" name="workspace" id="workspace" locked="true"/><path class="hand " transform="matrix(1 0 0 1 -0.9238578680203045 0)" width="21.259528000000007" height="25.921999999999997" stroke-miterlimit="3" stroke="none" fill="#000000" d="M2.043,16.428 C3.503,15.552000000000001 4.3309999999999995,16.545 5.926,17.289 C7.297000000000001,17.929000000000002 8.825,17.939 8.959,17.136000000000003 C9.174999999999999,15.839000000000002 9.128,15.220000000000002 9.128,13.457000000000003 C9.128,12.056000000000003 8.686,8.881000000000004 8.337,6.482000000000003 C7.917,3.595000000000003 7.771,1.905000000000003 9.187999999999999,1.772000000000003 C10.547999999999998,1.6440000000000028 10.616,2.411000000000003 11.133,6.3320000000000025 C11.529,9.338000000000003 12.155999999999999,11.453000000000003 12.469,11.391000000000002 C12.782,11.329 12.317,8.605000000000002 12.203,5.828000000000002 C12,0.8590000000000018 12.266,0.07800000000000207 13.516,0.07800000000000207 C14.593,0.07800000000000207 14.828,0.781000000000002 14.968,5.828000000000002 C15.041,8.453000000000003 15.327,11.186000000000002 15.549,11.186000000000002 C15.883,11.186000000000002 16.148,8.623000000000001 16.097,5.8450000000000015 C16,0.6510000000000016 16.914,1.043000000000002 17.464000000000002,1.043000000000002 C18.006000000000004,1.043000000000002 18.953000000000003,1.196000000000002 18.923000000000002,6.149000000000002 C18.904000000000003,9.045000000000002 18.923000000000002,11.545000000000002 19.470000000000002,11.545000000000002 C19.714000000000002,11.545000000000002 20.108000000000004,9.211000000000002 20.108000000000004,6.939000000000002 C20.108000000000004,3.139000000000002 20.837000000000003,3.139000000000002 21.416000000000004,3.139000000000002 C21.993000000000002,3.139000000000002 22.297000000000004,3.839000000000002 22.327000000000005,7.638000000000002 C22.352,10.666 22,14.929 22,17.513 C22,23.802 19.959,23.868000000000002 19.959,26 L11.418,26 C11.167,25.396 10.585999999999999,25.042 9.187,23.613 C7.776,22.172 4.5809999999999995,19.415 2.0619999999999994,18.872999999999998 C0.376,18.511 1.142,16.969 2.043,16.428 Z "/></svg>

<?xml version="1.0" encoding="utf-8"?>
<!-- Generator: Adobe Illustrator 15.0.0, SVG Export Plug-In . SVG Version: 6.00 Build 0)  -->
<!DOCTYPE svg PUBLIC "-//W3C//DTD SVG 1.1//EN" "http://www.w3.org/Graphics/SVG/1.1/DTD/svg11.dtd">
<svg version="1.1" id="Layer_1" xmlns="http://www.w3.org/2000/svg" xmlns:xlink="http://www.w3.org/1999/xlink" x="0px" y="0px"
	 width="26px" height="26px" viewBox="0 0 26 26" enable-background="new 0 0 26 26" xml:space="preserve">
<rect fill="none" width="26" height="26"/>
<rect fill="none" width="26" height="26"/>
<path fill="#000000" d="M2.043,16.428c1.46-0.876,2.288,0.117,3.883,0.861c1.371,0.64,2.899,0.65,3.033-0.153
	c0.216-1.297,0.169-1.916,0.169-3.679c0-1.401-0.442-4.576-0.791-6.975c-0.42-2.887-0.566-4.577,0.851-4.71
	c1.36-0.128,1.428,0.639,1.945,4.56c0.396,3.006,1.023,5.121,1.336,5.059s-0.152-2.786-0.266-5.563
	c-0.203-4.969,0.063-5.75,1.313-5.75c1.077,0,1.312,0.703,1.452,5.75c0.073,2.625,0.359,5.358,0.581,5.358
	c0.334,0,0.599-2.563,0.548-5.341c-0.097-5.194,0.817-4.802,1.367-4.802c0.542,0,1.489,0.153,1.459,5.106
	c-0.019,2.896,0,5.396,0.547,5.396c0.244,0,0.638-2.334,0.638-4.606c0-3.8,0.729-3.8,1.308-3.8c0.577,0,0.881,0.7,0.911,4.499
	C22.352,10.666,22,14.929,22,17.513c0,6.289-2.041,6.355-2.041,8.487h-8.541c-0.251-0.604-0.832-0.958-2.231-2.387
	c-1.411-1.441-4.606-4.198-7.125-4.74C0.376,18.511,1.142,16.969,2.043,16.428z"/>
</svg>
